public/assets/img/home.svg

<svg width="24" height="24" viewBox="0 0 24 24" fill="none" xmlns="http://www.w3.org/2000/svg">
<path fill-rule="evenodd" clip-rule="evenodd" d="M19.2539 19C19.2539 20.2109 18.5195 20.9375 17.2695 20.9375H6.69141C5.44141 20.9375 4.70703 20.2109 4.70703 19V11.8828L3.91797 12.5469C3.69922 12.7266 3.44922 12.8594 3.19141 12.8594C2.62109 12.8594 2.26953 12.4766 2.26953 12C2.26953 11.7422 2.39453 11.4766 2.62891 11.2734L10.7695 4.44531C11.5273 3.8125 12.4961 3.8125 13.2461 4.44531L16.8164 7.44531V6.08594C16.8164 5.73438 17.0586 5.5 17.4102 5.5H18.6758C19.0273 5.5 19.2539 5.73438 19.2539 6.08594V9.49219L21.3711 11.2734C21.6055 11.4688 21.7305 11.7188 21.7305 12.0156C21.7305 12.5312 21.3398 12.8594 20.8164 12.8594C20.5508 12.8594 20.3008 12.7266 20.082 12.5469L19.2539 11.8516V19ZM7.23047 19.1484H9.76172V14.1172C9.76172 13.75 10.0039 13.5156 10.3789 13.5156H13.6367C14.0039 13.5156 14.2383 13.75 14.2383 14.1172V19.1484H16.7305C17.207 19.1484 17.4727 18.8828 17.4727 18.3984V10.3438L12.3945 6.08594C12.1445 5.875 11.8633 5.875 11.6211 6.08594L6.48828 10.3828V18.3984C6.48828 18.8828 6.75391 19.1484 7.23047 19.1484Z" fill="#141029" fill-opacity="0.6"/>
</svg>

<svg width="24" height="24" fill="none" xmlns="http://www.w3.org/2000/svg"><path fill-rule="evenodd" clip-rule="evenodd" d="M19.254 19c0 1.21-.735 1.938-1.985 1.938H6.692c-1.25 0-1.984-.727-1.984-1.938v-7.117l-.789.664c-.219.18-.469.312-.727.312-.57 0-.921-.382-.921-.859 0-.258.125-.523.359-.727l8.14-6.828c.758-.633 1.727-.633 2.477 0l3.57 3v-1.36c0-.35.243-.585.594-.585h1.266c.351 0 .578.234.578.586v3.406l2.117 1.781c.235.196.36.446.36.743 0 .515-.391.843-.915.843-.265 0-.515-.132-.734-.312l-.828-.695V19Zm-12.024.148h2.532v-5.03c0-.368.242-.602.617-.602h3.258c.367 0 .601.234.601.601v5.031h2.492c.477 0 .743-.265.743-.75v-8.054l-5.078-4.258c-.25-.211-.532-.211-.774 0l-5.133 4.297v8.015c0 .485.266.75.742.75Z" fill="#141029" fill-opacity=".6"/></svg>
